X: 1
T: DUXBURY -- HORNPIPE
C: N. Sampson
B: Cole's 1000 Fiddle Tunes
R: hornpipe
M: C|
L: 1/8
Z: Contributed 20000628205606 by John Chambers John.Chambers:weema.com
K: F
vAB \
| cAFA cAfd | cfAc agfe | fgdg bagf | (3gag (3fed c2AB \
| cAFA cAfd | cfAc agfe | fgdg bage | f2a2f2 :|
|: vfg \
| afdg bgec | GABd fcAF | CFAc dfeg | fage c2fg \
| afdg bgec | GABd fcAF | CFAc dfeg |  fede f2 :|
